flaticon/hand-gestures/hands.svg

<svg xmlns="http://www.w3.org/2000/svg" width="32" height="32" viewBox="0 0 24 24">
    <path d="M9.359375 12.398438C9.160156 12.640625 8.960938 12.878906 8.800781 13.199219L8.800781 8.398438C8.800781 7.640625 8.238281 6.800781 7.398438 6.800781 7.078125 6.800781 6.800781 6.921875 6.558594 7.121094 6.320312 6.71875 5.878906 6.398438 5.398438 6.398438 4.800781 6.398438 4.320312 6.878906 4.121094 7.441406 3.921875 7.28125 3.679688 7.199219 3.441406 7.199219 2.679688 7.199219 2.121094 7.878906 2 8.558594 1.839844 8.480469 1.640625 8.398438 1.398438 8.398438.558594 8.398438 0 9.238281 0 10L0 17.878906C0 19.761719 0 19.878906.761719 20.839844L.800781 20.921875.800781 22.398438C.800781 22.839844.800781 24 2.199219 24L7.160156 24C8 24 8.398438 23.480469 8.398438 22.359375L8.398438 21.039062C9.199219 20.640625 10.398438 19.601562 10.398438 17.640625 10.398438 16.679688 10.761719 14.839844 11.359375 14 12.078125 13.039062 11.519531 12.480469 11.359375 12.320312 10.800781 11.878906 9.839844 11.921875 9.359375 12.398438zM10.71875 13.601562C10 14.640625 9.601562 16.640625 9.601562 17.71875 9.601562 19.582031 8.335938 20.238281 7.972656 20.398438L7.199219 20.398438C6.960938 20.398438 6.800781 20.558594 6.800781 20.800781 6.800781 21.039062 6.960938 21.199219 7.199219 21.199219L7.601562 21.199219 7.601562 22.398438C7.601562 23.078125 7.441406 23.199219 7.160156 23.199219L2.199219 23.199219C1.640625 23.199219 1.601562 23 1.601562 22.398438L1.601562 21.199219 2 21.199219C2.238281 21.199219 2.398438 21.039062 2.398438 20.800781 2.398438 20.558594 2.238281 20.398438 2 20.398438L1.398438 20.398438C.800781 19.601562.800781 19.601562.800781 17.878906L.800781 10C.800781 9.679688 1.039062 9.199219 1.398438 9.199219 1.71875 9.199219 2 9.640625 2 10L2 15.199219C2 15.441406 2.160156 15.601562 2.398438 15.601562 2.640625 15.601562 2.800781 15.441406 2.800781 15.199219L2.800781 8.800781C2.800781 8.480469 3.078125 8 3.441406 8 3.71875 8 4 8.441406 4 8.800781L4 14.800781C4 15.039062 4.160156 15.199219 4.398438 15.199219 4.640625 15.199219 4.800781 15.039062 4.800781 14.800781L4.800781 8C4.800781 7.679688 5.039062 7.199219 5.398438 7.199219 5.71875 7.199219 6 7.640625 6 8L6 14.800781C6 15.039062 6.160156 15.199219 6.398438 15.199219 6.640625 15.199219 6.800781 15.039062 6.800781 14.800781L6.800781 8.398438C6.800781 8.039062 7.039062 7.601562 7.398438 7.601562 7.71875 7.601562 8 8.039062 8 8.398438L8 15.800781C8 15.839844 8 15.878906 8 15.921875L8 15.960938C8.039062 16.160156 8.238281 16.320312 8.441406 16.28125 8.640625 16.238281 8.800781 16.078125 8.800781 15.878906 8.800781 15.199219 9.28125 13.640625 9.960938 13.039062 10.121094 12.839844 10.640625 12.800781 10.839844 13 11 13.121094 10.878906 13.398438 10.71875 13.601562zM22.601562 8.441406C22.398438 8.441406 22.199219 8.480469 22 8.601562 21.878906 7.921875 21.359375 7.238281 20.601562 7.238281 20.359375 7.238281 20.121094 7.359375 19.921875 7.480469 19.71875 6.921875 19.238281 6.441406 18.601562 6.441406 18.078125 6.441406 17.679688 6.761719 17.441406 7.160156 17.199219 6.960938 16.921875 6.839844 16.601562 6.839844 15.761719 6.839844 15.199219 7.679688 15.199219 8.441406L15.199219 13.238281C15.039062 12.921875 14.839844 12.640625 14.640625 12.441406 14.121094 11.960938 13.160156 11.921875 12.640625 12.359375 12.480469 12.480469 11.917969 13.078125 12.640625 14.039062 13.238281 14.878906 13.601562 16.71875 13.601562 17.679688 13.601562 19.640625 14.800781 20.679688 15.601562 21.078125L15.601562 22.398438C15.601562 22.800781 15.601562 24 16.839844 24L21.800781 24C23.199219 24 23.199219 22.878906 23.199219 22.398438L23.199219 20.917969 23.238281 20.917969C24 19.921875 24 19.800781 24 17.921875L24 10.039062C24 9.28125 23.441406 8.441406 22.601562 8.441406zM23.199219 17.878906C23.199219 19.601562 23.199219 19.601562 22.601562 20.398438L22 20.398438C21.761719 20.398438 21.601562 20.558594 21.601562 20.800781 21.601562 21.039062 21.761719 21.199219 22 21.199219L22.398438 21.199219 22.398438 22.398438C22.398438 22.960938 22.320312 23.160156 21.800781 23.160156L16.839844 23.160156C16.519531 23.160156 16.398438 23.039062 16.398438 22.359375L16.398438 21.199219 16.800781 21.199219C17.039062 21.199219 17.199219 21.039062 17.199219 20.800781 17.199219 20.558594 17.039062 20.398438 16.800781 20.398438L16.121094 20.398438C16.039062 20.398438 14.398438 19.800781 14.398438 17.679688 14.398438 16.601562 14 14.601562 13.28125 13.558594 13.121094 13.359375 13 13.078125 13.160156 12.960938 13.28125 12.878906 13.441406 12.839844 13.601562 12.839844 13.761719 12.839844 13.960938 12.878906 14.078125 12.921875 14.71875 13.558594 15.199219 15.121094 15.199219 15.800781 15.199219 16 15.359375 16.160156 15.558594 16.199219 15.761719 16.238281 15.960938 16.121094 16 15.921875L16 15.878906C16 15.839844 16 15.800781 16 15.761719L16 8.398438C16 8.039062 16.28125 7.601562 16.601562 7.601562 16.960938 7.601562 17.199219 8.039062 17.199219 8.398438L17.199219 14.800781C17.199219 15.039062 17.359375 15.199219 17.601562 15.199219 17.839844 15.199219 18 15.039062 18 14.800781L18 8C18 7.640625 18.28125 7.199219 18.601562 7.199219 18.960938 7.199219 19.199219 7.679688 19.199219 8L19.199219 14.800781C19.199219 15.039062 19.359375 15.199219 19.601562 15.199219 19.839844 15.199219 20 15.039062 20 14.800781L20 8.800781C20 8.441406 20.238281 8 20.558594 8 20.921875 8 21.199219 8.480469 21.199219 8.800781L21.199219 15.199219C21.199219 15.441406 21.359375 15.601562 21.601562 15.601562 21.839844 15.601562 22 15.441406 22 15.199219L22 10C22 9.640625 22.28125 9.199219 22.601562 9.199219 22.960938 9.199219 23.199219 9.679688 23.199219 10zM12.398438 4.398438L12.398438.398438C12.398438.160156 12.238281 0 12 0 11.761719 0 11.601562.160156 11.601562.398438L11.601562 4.398438C11.601562 4.640625 11.761719 4.800781 12 4.800781 12.238281 4.800781 12.398438 4.640625 12.398438 4.398438zM15.199219 4.800781C15.320312 4.800781 15.398438 4.761719 15.480469 4.679688L18.679688 1.480469C18.839844 1.320312 18.839844 1.078125 18.679688.921875 18.519531.761719 18.28125.761719 18.121094.921875L14.921875 4.121094C14.761719 4.28125 14.761719 4.519531 14.921875 4.679688 15 4.761719 15.078125 4.800781 15.199219 4.800781zM8.921875 4.679688C9 4.761719 9.078125 4.800781 9.199219 4.800781 9.320312 4.800781 9.398438 4.761719 9.480469 4.679688 9.640625 4.519531 9.640625 4.28125 9.480469 4.121094L6.28125.921875C6.121094.761719 5.878906.761719 5.71875.921875 5.558594 1.078125 5.558594 1.320312 5.71875 1.480469zM8.921875 4.679688"/>
</svg>

<svg xmlns="http://www.w3.org/2000/svg" width="32" height="32" viewBox="0 0 24 24">
    <path d="M9.36 12.398c-.2.243-.4.48-.56.801V8.4C8.8 7.64 8.239 6.8 7.399 6.8c-.32 0-.597.12-.84.32-.238-.402-.68-.723-1.16-.723-.597 0-1.078.48-1.277 1.043-.2-.16-.441-.242-.68-.242-.761 0-1.32.68-1.441 1.36-.16-.079-.36-.16-.602-.16C.558 8.398 0 9.238 0 10v7.879c0 1.883 0 2 .762 2.96l.039.083v1.476C.8 22.84.8 24 2.199 24H7.16c.84 0 1.238-.52 1.238-1.64v-1.32c.801-.4 2-1.438 2-3.4 0-.96.364-2.8.961-3.64.72-.96.16-1.52 0-1.68-.558-.441-1.52-.398-2 .078zm1.359 1.204C10 14.64 9.602 16.64 9.602 17.719c0 1.863-1.266 2.52-1.63 2.68H7.2c-.238 0-.398.16-.398.402 0 .238.16.398.398.398h.403v1.2c0 .68-.16.8-.442.8H2.2c-.56 0-.598-.199-.598-.8v-1.2H2c.238 0 .398-.16.398-.398 0-.242-.16-.403-.398-.403h-.602c-.597-.796-.597-.796-.597-2.52V10c0-.32.238-.8.597-.8.32 0 .602.44.602.8v5.2c0 .241.16.402.398.402.243 0 .403-.16.403-.403V8.801c0-.32.277-.801.64-.801.278 0 .559.441.559.8v6c0 .24.16.4.398.4.243 0 .403-.16.403-.4V8c0-.32.238-.8.597-.8.32 0 .602.44.602.8v6.8c0 .24.16.4.398.4.243 0 .403-.16.403-.4V8.399c0-.359.238-.796.597-.796.32 0 .602.437.602.796v7.563c.04.2.238.36.441.32.2-.043.36-.203.36-.402 0-.68.48-2.238 1.16-2.84.16-.2.68-.238.879-.039.16.121.039.398-.121.602zm0 0M22.602 8.441c-.204 0-.403.04-.602.16-.121-.68-.64-1.363-1.398-1.363-.243 0-.48.121-.68.242-.203-.558-.684-1.039-1.32-1.039-.524 0-.922.32-1.16.72-.243-.2-.52-.321-.84-.321-.84 0-1.403.84-1.403 1.601v4.797a3.19 3.19 0 0 0-.558-.797c-.52-.48-1.48-.52-2-.082-.16.121-.723.72 0 1.68.597.84.96 2.68.96 3.64 0 1.962 1.2 3 2 3.4v1.32c0 .402 0 1.601 1.239 1.601h4.96c1.4 0 1.4-1.121 1.4-1.602v-1.48h.038c.762-.996.762-1.117.762-2.996v-7.883c0-.758-.559-1.598-1.398-1.598zm.597 9.438c0 1.723 0 1.723-.597 2.52H22c-.238 0-.398.16-.398.402 0 .238.16.398.398.398h.398v1.2c0 .562-.078.761-.597.761H16.84c-.32 0-.442-.12-.442-.8V21.2h.403c.238 0 .398-.16.398-.4 0-.241-.16-.402-.398-.402h-.68c-.082 0-1.723-.597-1.723-2.718 0-1.078-.398-3.078-1.117-4.121-.16-.2-.281-.48-.12-.598a.797.797 0 0 1 .44-.121c.16 0 .36.039.477.082.64.637 1.121 2.2 1.121 2.879 0 .199.16.36.36.398.203.04.402-.078.441-.277v-.043-7.481c0-.359.281-.796.602-.796.359 0 .597.437.597.796v6.403c0 .238.16.398.403.398.238 0 .398-.16.398-.398V8c0-.36.281-.8.602-.8.359 0 .597.48.597.8v6.8c0 .24.16.4.403.4.238 0 .398-.16.398-.4v-6c0-.359.238-.8.559-.8.363 0 .64.48.64.8v6.4c0 .241.16.402.403.402.238 0 .398-.16.398-.403V10c0-.36.281-.8.602-.8.359 0 .597.48.597.8zm0 0M12.398 4.398v-4C12.398.16 12.238 0 12 0c-.238 0-.398.16-.398.398v4c0 .243.16.403.398.403.238 0 .398-.16.398-.403zm0 0M15.2 4.8c.12 0 .198-.038.28-.12l3.2-3.2a.385.385 0 0 0 0-.558.385.385 0 0 0-.559 0l-3.2 3.2a.385.385 0 0 0 0 .558.348.348 0 0 0 .278.12zm0 0M8.922 4.68a.348.348 0 0 0 .277.12c.121 0 .2-.038.281-.12a.385.385 0 0 0 0-.559L6.281.921a.39.39 0 0 0-.562 0 .385.385 0 0 0 0 .56zm0 0"/>
</svg>
